<?xml version="1.0" encoding="UTF-8"?>
<map version="1.10" tiledversion="1.12.2" orientation="orthogonal" renderorder="right-down" width="30" height="20" tilewidth="16" tileheight="16" infinite="0" nextlayerid="5" nextobjectid="1">
 <tileset firstgid="1" source="Floors_Tiles.tsx"/>
 <tileset firstgid="651" source="Wall_Tiles.tsx"/>
 <tileset firstgid="1276" source="Dungeon_Tiles.tsx"/>
 <layer id="2" name="Tile Layer 2" width="30" height="20">
  <data encoding="csv">
43,44,653,654,654,653,654,653,654,653,654,653,654,653,654,653,654,653,654,653,654,653,654,653,654,653,654,653,654,681,
68,69,264,262,263,264,262,263,264,262,263,264,262,263,264,262,263,264,262,263,262,263,264,262,262,263,262,263,262,706,
93,94,289,287,288,289,287,288,289,287,288,289,287,288,289,287,288,289,287,288,287,288,289,287,287,288,287,288,287,731,
118,119,0,0,0,0,0,0,0,0,0,0,0,0,0,0,0,0,0,0,0,0,0,0,0,0,727,728,755,706,
68,69,0,0,0,0,0,0,0,0,0,0,0,0,0,0,0,0,0,0,0,0,0,0,0,0,752,753,754,731,
18,19,0,0,0,0,0,0,0,0,0,0,0,0,0,0,0,0,0,0,0,0,0,0,0,0,0,17,680,706,
43,44,0,0,0,0,0,0,0,0,0,0,0,0,0,0,0,0,0,0,0,0,0,0,0,0,0,42,705,706,
18,19,0,0,0,0,0,0,0,0,0,0,0,0,0,0,0,0,0,0,0,0,0,0,0,0,0,67,730,731,
43,44,0,0,0,0,0,0,0,0,0,0,0,0,0,0,0,0,0,0,0,0,0,0,0,0,0,17,680,706,
68,69,0,0,0,0,0,0,0,0,0,0,0,0,0,0,0,0,0,0,0,0,0,0,0,0,0,42,705,731,
93,94,0,0,0,0,0,0,0,0,0,0,0,0,0,0,0,0,0,0,0,0,0,0,0,0,0,67,730,706,
18,19,0,0,0,0,0,0,0,0,0,0,0,0,0,0,0,0,0,0,0,0,0,0,0,0,0,92,755,706,
43,44,0,0,0,0,0,0,0,0,0,0,0,0,0,0,0,0,0,0,0,0,0,0,0,0,0,17,680,731,
18,19,0,0,0,0,0,0,0,0,0,0,0,0,0,0,0,0,0,0,0,0,0,0,0,0,0,42,705,706,
43,44,0,0,0,0,0,0,0,0,0,0,0,0,0,0,0,0,0,0,0,0,0,0,0,0,0,67,730,731,
68,69,0,0,0,0,0,0,0,0,0,0,0,0,0,0,0,0,0,0,0,0,0,0,0,0,0,92,755,706,
18,19,0,0,0,0,0,0,0,0,0,0,0,0,0,0,0,0,0,0,0,0,0,0,0,0,0,117,680,706,
43,44,0,237,238,239,239,239,0,0,0,0,0,0,0,0,0,0,0,0,0,0,0,0,0,0,0,67,705,731,
68,69,239,239,239,239,239,264,239,239,239,239,239,239,239,239,239,239,239,238,239,239,239,239,237,238,239,239,238,731,
93,94,3221226126,3221226125,3221226126,3221226125,3221226126,3221226125,3221226126,3221226125,3221226126,3221226125,3221226126,3221226125,3221226126,3221226125,3221226126,3221226125,3221226126,3221226125,3221226126,3221226125,3221226126,3221226125,3221226126,3221226126,3221226125,3221226126,3221226125,3221226124
</data>
 </layer>
 <layer id="1" name="Tile Layer 1" width="30" height="20">
  <data encoding="csv">
0,0,0,0,0,0,0,0,0,0,0,0,0,0,0,0,0,0,0,0,0,0,0,0,0,0,0,0,0,0,
0,0,0,0,0,0,0,0,0,0,0,0,0,0,0,0,0,0,0,0,0,0,0,0,0,0,0,0,0,0,
0,0,0,0,0,0,0,0,0,0,0,0,0,0,0,0,0,0,0,0,0,0,0,0,0,0,0,0,0,0,
0,0,0,0,0,0,0,0,0,0,0,0,0,0,0,0,0,0,0,0,0,0,0,0,0,0,0,0,0,0,
0,0,0,0,0,0,0,0,0,0,0,0,0,0,0,0,0,0,0,0,0,0,0,0,0,0,0,0,0,0,
0,0,0,0,0,0,0,0,0,0,0,0,0,0,0,0,0,0,0,0,0,0,0,0,0,0,0,0,0,0,
0,0,0,0,0,0,0,0,0,0,0,0,0,0,0,0,0,0,0,0,0,0,0,0,0,0,0,0,0,0,
0,0,0,0,0,0,0,0,0,0,0,0,0,0,0,0,0,0,0,0,0,0,0,0,0,0,0,0,0,0,
0,0,0,0,0,0,0,0,0,0,0,0,0,0,0,0,0,0,0,0,0,0,0,0,0,0,0,0,0,0,
0,0,0,0,0,0,0,0,0,0,0,0,0,0,0,0,0,0,0,0,0,0,0,0,0,0,0,0,0,0,
0,0,0,0,0,0,0,0,0,0,0,0,0,0,0,0,0,0,0,0,0,0,0,0,0,0,0,0,0,0,
0,0,0,0,0,0,0,0,0,0,0,0,0,0,0,0,0,0,0,0,0,0,0,0,0,0,0,0,0,0,
0,0,0,0,0,0,0,0,0,0,0,0,0,0,0,0,0,0,0,0,0,0,0,0,0,0,0,0,0,0,
0,0,0,0,0,0,0,0,0,0,0,0,0,0,0,0,0,0,0,0,0,0,0,0,0,0,0,0,0,0,
0,0,0,0,0,0,0,0,0,0,0,0,0,0,0,0,0,0,0,0,0,0,0,0,0,0,0,0,0,0,
0,0,0,0,0,0,0,0,0,0,0,0,0,0,0,0,0,0,0,0,0,0,0,0,0,0,0,0,0,0,
0,0,0,0,0,0,0,0,0,0,0,0,0,0,0,0,0,0,0,0,0,0,0,0,0,0,0,0,0,0,
0,0,0,0,0,0,0,0,0,0,0,0,0,0,0,0,0,0,0,0,0,0,0,0,0,0,0,0,0,0,
0,0,0,0,0,0,0,0,0,0,0,0,0,0,0,0,0,0,0,0,0,0,0,0,0,0,0,0,0,0,
0,0,0,0,0,0,0,0,0,0,0,0,0,0,0,0,0,0,0,0,0,0,0,0,0,0,0,0,0,0
</data>
 </layer>
 <layer id="4" name="Tile Layer 3" width="30" height="20">
  <data encoding="csv">
0,0,0,0,0,0,0,0,0,0,0,0,0,0,0,0,0,0,0,0,0,0,0,0,0,0,0,0,0,0,
0,0,0,0,0,0,0,0,0,0,0,0,0,0,0,0,0,0,0,0,0,0,0,0,0,0,0,0,0,0,
0,0,0,0,0,0,0,0,0,0,0,0,0,0,0,0,0,0,0,0,0,0,0,0,0,0,0,0,0,0,
0,0,1610614049,1610614049,1610614049,1610614049,1610614049,1610614049,1610614049,1610614049,1610614049,1610614049,1610614049,1610614049,1610614049,1610614049,1610614074,1610614049,1610614074,1610614049,1610614074,1610614049,1610614074,1610614049,1610614049,1610614074,1610614049,1610614049,1610614074,0,
0,0,1610614048,1610614048,1610614048,1610614048,1610614048,1610614048,1610614048,1610614048,1610614048,1610614048,1610614048,1610614048,1610614049,1610614048,1610614073,1610614048,1610614073,1610614048,1610614073,1610614048,1610614073,1610614048,1610614048,1610614073,1610614048,1610614048,1610614073,0,
0,0,1610614049,1610614074,1610614049,1610614049,1610614049,1610614049,1610614049,1610614049,1610614074,1610614074,1610614074,1610614074,1610614074,1610614074,1610614074,1610614074,1610614074,1610614074,1610614074,1610614074,1610614074,1610614074,1610614074,1610614074,1610614048,1610614073,1610614073,0,
0,0,1610614049,1610614074,1610614048,1610614049,1610614074,1610614074,1610614074,1610614049,1610614049,1610614049,1610614049,1610614049,1610614049,1610614049,1610614049,1610614049,1610614049,1610614049,1610614049,1610614074,1610614073,1610614073,1610614073,1610614073,1610614049,1610614048,1610614073,0,
0,0,1610614049,1610614049,1610614049,1610614074,1610614074,1610614073,1610614073,1610614048,1610614048,1610614048,1610614048,1610614048,1610614048,1610614048,1610614048,1610614048,1610614048,1610614048,1610614049,1610614049,1610614049,1610614049,1610614074,1610614073,1610614048,1610614048,1610614073,0,
0,0,1610614049,1610614048,1610614049,1610614074,1610614073,1610614049,1610614049,1610614049,1610614049,1610614048,1610614073,1610614073,1610614073,1610614073,1610614074,1610614074,1610614074,1610614074,1610614048,1610614048,1610614048,1610614048,1610614073,1610614073,1610614049,1610614048,1610614073,0,
0,0,1610614049,1610614074,1610614049,1610614049,1610614049,1610614048,1610614048,1610614048,1610614048,1610614048,1610614048,1610614048,1610614048,1610614073,1610614073,1610614073,1610614073,1610614073,1610614073,1610614073,1610614073,1610614074,1610614073,1610614073,1610614048,1610614048,1610614073,0,
0,0,1610614049,1610614074,1610614049,1610614048,1610614048,1610614048,1610614073,1610614074,1610614074,1610614074,1610614074,1610614074,1610614074,1610614074,1610614074,1610614074,1610614074,1610614074,1610614074,1610614074,1610614074,1610614073,1610614073,1610614073,1610614049,1610614048,1610614073,0,
0,0,1610614049,1610614049,1610614049,1610614048,1610614073,1610614073,1610614073,1610614073,1610614073,1610614073,1610614073,1610614073,1610614073,1610614073,1610614073,1610614073,1610614073,1610614073,1610614073,1610614073,1610614073,1610614048,1610614073,1610614073,1610614049,1610614048,1610614073,0,
0,0,1610614049,1610614074,1610614048,1610614049,1610614049,1610614049,1610614049,1610614049,1610614049,1610614049,1610614049,1610614049,1610614049,1610614049,1610614049,1610614049,1610614049,1610614049,1610614049,1610614049,1610614048,1610614048,1610614073,1610614073,1610614074,1610614048,1610614073,0,
0,0,1610614049,1610614049,1610614049,1610614048,1610614048,1610614048,1610614048,1610614048,1610614048,1610614048,1610614048,1610614048,1610614048,1610614048,1610614048,1610614048,1610614048,1610614048,1610614048,1610614048,1610614048,1610614073,1610614048,1610614073,1610614073,1610614048,1610614073,0,
0,0,1610614048,1610614049,1610614048,1610614049,1610614049,1610614049,1610614049,1610614049,1610614049,1610614049,1610614049,1610614049,1610614049,1610614049,1610614049,1610614049,1610614049,1610614049,1610614049,1610614049,1610614049,1610614049,1610614048,1610614048,1610614073,1610614048,1610614073,0,
0,0,1610614048,1610614048,1610614048,1610614048,1610614048,1610614048,1610614048,1610614048,1610614048,1610614048,1610614048,1610614048,1610614048,1610614048,1610614048,1610614048,1610614048,1610614048,1610614048,1610614048,1610614048,1610614048,1610614048,1610614073,1610614049,1610614048,1610614073,0,
0,0,1610614049,1610614074,1610614074,1610614048,1610614073,1610614073,1610614073,1610614073,1610614074,1610614074,1610614074,1610614074,1610614074,1610614074,1610614074,1610614074,1610614074,1610614074,1610614074,1610614074,1610614074,1610614074,1610614074,1610614074,1610614074,1610614048,1610614073,0,
0,0,1610614049,1610614049,1610614049,1610614049,1610614049,1610614049,1610614049,1610614049,1610614049,1610614049,1610614049,1610614049,1610614049,1610614049,1610614049,1610614049,1610614049,1610614049,1610614049,1610614049,1610614049,1610614049,1610614049,1610614049,1610614049,1610614048,1610614073,0,
0,0,1610614048,1610614048,1610614048,1610614048,1610614048,1610614048,1610614048,1610614048,1610614048,1610614048,1610614048,1610614048,1610614048,1610614048,1610614048,1610614048,1610614048,1610614048,1610614048,1610614048,1610614048,1610614048,1610614048,1610614048,1610614048,1610614048,1610614073,0,
0,0,0,0,0,0,0,0,0,0,0,0,0,0,0,0,0,0,0,0,0,0,0,0,0,0,0,0,0,0
</data>
 </layer>
</map>
